lib/brands/icons/cross-browser-testing.svg

<svg xmlns="http://www.w3.org/2000/svg" fill="none" aria-hidden="true" viewBox="0 0 48 48"><g id="cross-browser-testing-Icon"><g id="Group"><path id="Vector" fill="#50E4EA" d="M41.0156 6.98627H6.98438V41.0175H41.0156V6.98627Z"/><path id="Vector_2" fill="#05263A" d="M40.1033 7.89274V40.1073H7.89294V7.89274H40.1033ZM41.9962 6H6V42H42V6H41.9962Z"/><path id="Vector_3" fill="#05263A" d="M31.0547 29.5899L31.6528 31.8576C29.7485 33.9058 27.5035 35.617 25.0237 36.908C23.7744 36.5142 22.5629 36.0145 21.4044 35.405C20.723 35.0491 20.0567 34.6629 19.4131 34.2389C18.8603 33.8755 18.3227 33.4893 17.8116 33.088L31.0547 29.5899ZM14.9116 17.8157L18.406 31.055L16.1383 31.6532C14.0901 29.7489 12.3827 27.5076 11.0879 25.0241C11.4816 23.7747 11.9814 22.5632 12.5909 21.4048C12.943 20.7233 13.3329 20.057 13.7569 19.4172C14.1204 18.8644 14.5065 18.3231 14.9116 17.8157ZM31.8535 16.3506C33.9016 18.2549 35.6091 20.4962 36.9039 22.9797C36.5101 24.229 36.0066 25.4405 35.4009 26.599C35.0488 27.2805 34.6588 27.9468 34.2348 28.5866C33.8714 29.1393 33.4852 29.6807 33.0839 30.1918L29.5857 16.9488L31.8535 16.3506ZM22.9718 11.0958C24.2211 11.4895 25.4326 11.9931 26.5911 12.5988C27.2726 12.9547 27.9351 13.3408 28.5787 13.7648C29.1352 14.1245 29.6728 14.5145 30.1839 14.9158L16.9409 18.4139L16.3427 16.1462C18.247 14.098 20.492 12.3906 22.9718 11.0958Z"/></g></g></svg>

<svg xmlns="http://www.w3.org/2000/svg" fill="none" aria-hidden="true" viewBox="0 0 48 48"><path fill="#50E4EA" d="M41.016 6.986H6.984v34.032h34.032V6.986Z"/><path fill="#05263A" d="M40.103 7.893v32.214H7.893V7.893h32.21ZM41.996 6H6v36h36V6h-.004Z"/><path fill="#05263A" d="m31.055 29.59.598 2.268a24.52 24.52 0 0 1-6.63 5.05 21.92 21.92 0 0 1-3.619-1.503 22.81 22.81 0 0 1-3.592-2.317l13.243-3.498ZM14.912 17.816l3.494 13.239-2.268.598a24.54 24.54 0 0 1-5.05-6.629 21.93 21.93 0 0 1 1.503-3.62c.352-.68.742-1.347 1.166-1.987.363-.553.75-1.094 1.155-1.601Zm16.941-1.465a24.542 24.542 0 0 1 5.05 6.629 22.251 22.251 0 0 1-1.502 3.619 23.636 23.636 0 0 1-2.317 3.593l-3.498-13.243 2.268-.598Zm-8.881-5.255a22.732 22.732 0 0 1 5.607 2.669c.556.36 1.094.75 1.605 1.15l-13.244 3.5-.598-2.268a24.597 24.597 0 0 1 6.629-5.05Z"/></svg>
